Themes/OneUI/assets/svg/ic_settings_applications.svg

<?xml version="1.0" encoding="UTF-8" standalone="no"?>
<svg
   width="28.000021"
   height="28.000021"
   viewBox="0 0 28.000021 28.000021"
   fill="none"
   version="1.1"
   id="svg906"
   sodipodi:docname="ic_settings_applications.svg"
   xmlns:inkscape="http://www.inkscape.org/namespaces/inkscape"
   xmlns:sodipodi="http://sodipodi.sourceforge.net/DTD/sodipodi-0.dtd"
   xmlns="http://www.w3.org/2000/svg"
   xmlns:svg="http://www.w3.org/2000/svg">
  <sodipodi:namedview
     id="namedview908"
     pagecolor="#ffffff"
     bordercolor="#666666"
     borderopacity="1.0"
     inkscape:showpageshadow="2"
     inkscape:pageopacity="0.0"
     inkscape:pagecheckerboard="0"
     inkscape:deskcolor="#d1d1d1" />
  <g
     clip-path="url(#clip0_1_2180)"
     id="g899">
    <path
       d="M 24.856,3.14401 C 23.13,1.52161 20.7739,0.601214 18.1738,0.256914 15.6907,-0.072186 14,0.00881404 14,0.00881404 c 0,0 -1.691,-0.08100004 -4.17421,0.24809996 -2.6,0.3443 -4.956,1.264696 -6.6815,2.887096 -1.6228,1.7258 -2.543099,4.0819 -2.887599,6.6819 -0.3291004,2.48299 -0.2478004,4.17399 -0.2478004,4.17399 0,0 -0.0813,1.6908 0.2478004,4.174 0.3445,2.5998 1.264799,4.9561 2.887399,6.6819 1.7257,1.6226 4.0817,2.5428 6.6817,2.8875 C 12.309,28.0722 14,27.9912 14,27.9912 c 0,0 1.6907,0.081 4.1738,-0.2479 2.6001,-0.3447 4.9562,-1.2649 6.6818,-2.8875 1.623,-1.7258 2.5432,-4.0821 2.8877,-6.6819 0.3289,-2.4832 0.2479,-4.174 0.2479,-4.174 0,0 0.081,-1.691 -0.2479,-4.17399 -0.3445,-2.6 -1.2647,-4.9561 -2.8873,-6.6819 z"
       fill="#75b4fb"
       id="path895" />
    <path
       d="m 9.9896,15.0312 c 1.7068,0 3.0937,1.3879 3.0937,3.0938 0,1.7059 -1.3869,3.0938 -3.0937,3.0938 -1.7059,0 -3.0938,-1.3879 -3.0938,-3.0938 0,-1.7059 1.3879,-3.0938 3.0938,-3.0938 z m 8.0208,0 c 1.7069,0 3.0938,1.3879 3.0938,3.0938 0,1.7059 -1.3869,3.0938 -3.0938,3.0938 -1.7059,0 -3.0937,-1.3879 -3.0937,-3.0938 0,-1.7059 1.3878,-3.0938 3.0937,-3.0938 z M 9.9896,6.78125 c 1.7068,0 3.0937,1.3878 3.0937,3.0937 0,1.70585 -1.3869,3.09375 -3.0937,3.09375 -1.7059,0 -3.0938,-1.3879 -3.0938,-3.09375 0,-1.7059 1.3879,-3.0937 3.0938,-3.0937 z m 8.0208,0 c 1.7069,0 3.0938,1.3878 3.0938,3.0937 0,1.70585 -1.3869,3.09375 -3.0938,3.09375 -1.7059,0 -3.0937,-1.3879 -3.0937,-3.09375 0,-1.7059 1.3878,-3.0937 3.0937,-3.0937 z"
       fill="#ffffff"
       id="path897" />
  </g>
  <defs
     id="defs904">
    <clipPath
       id="clip0_1_2180">
      <rect
         width="28"
         height="28"
         fill="#ffffff"
         id="rect901"
         x="0"
         y="0" />
    </clipPath>
  </defs>
</svg>

<svg width="28" height="28" viewBox="0 0 28 28" fill="none" xmlns="http://www.w3.org/2000/svg">
<g clip-path="url(#clip0_1_2180)">
<path d="M24.856 3.14401C23.13 1.52161 20.7739 0.601214 18.1738 0.256914C15.6907 -0.072186 14 0.00881404 14 0.00881404C14 0.00881404 12.309 -0.072186 9.82579 0.256914C7.22579 0.601214 4.86979 1.52161 3.14429 3.14401C1.52149 4.86981 0.601191 7.22591 0.256691 9.82591C-0.0724094 12.3089 0.0088906 13.9999 0.0088906 13.9999C0.0088906 13.9999 -0.0724094 15.6907 0.256691 18.1739C0.601191 20.7737 1.52149 23.13 3.14409 24.8558C4.86979 26.4784 7.22579 27.3986 9.82579 27.7433C12.309 28.0722 14 27.9912 14 27.9912C14 27.9912 15.6907 28.0722 18.1738 27.7433C20.7739 27.3986 23.13 26.4784 24.8556 24.8558C26.4786 23.13 27.3988 20.7737 27.7433 18.1739C28.0722 15.6907 27.9912 13.9999 27.9912 13.9999C27.9912 13.9999 28.0722 12.3089 27.7433 9.82591C27.3988 7.22591 26.4786 4.86981 24.856 3.14401Z" fill="#75B4FB"/>
<path d="M9.9896 15.0312C11.6964 15.0312 13.0833 16.4191 13.0833 18.125C13.0833 19.8309 11.6964 21.2188 9.9896 21.2188C8.2837 21.2188 6.8958 19.8309 6.8958 18.125C6.8958 16.4191 8.2837 15.0312 9.9896 15.0312ZM18.0104 15.0312C19.7173 15.0312 21.1042 16.4191 21.1042 18.125C21.1042 19.8309 19.7173 21.2188 18.0104 21.2188C16.3045 21.2188 14.9167 19.8309 14.9167 18.125C14.9167 16.4191 16.3045 15.0312 18.0104 15.0312ZM9.9896 6.78125C11.6964 6.78125 13.0833 8.16905 13.0833 9.87495C13.0833 11.5808 11.6964 12.9687 9.9896 12.9687C8.2837 12.9687 6.8958 11.5808 6.8958 9.87495C6.8958 8.16905 8.2837 6.78125 9.9896 6.78125ZM18.0104 6.78125C19.7173 6.78125 21.1042 8.16905 21.1042 9.87495C21.1042 11.5808 19.7173 12.9687 18.0104 12.9687C16.3045 12.9687 14.9167 11.5808 14.9167 9.87495C14.9167 8.16905 16.3045 6.78125 18.0104 6.78125Z" fill="white"/>
</g>
<defs>
<clipPath id="clip0_1_2180">
<rect width="28" height="28" fill="white"/>
</clipPath>
</defs>
</svg>
